symbols/web/speaker_group/materialsymbolsrounded/speaker_group_wght700fill1_20px.svg

<svg xmlns="http://www.w3.org/2000/svg" height="20" width="20"><path d="M8.833 15.667q-1.145 0-1.927-.782-.781-.781-.781-1.927V2.896q0-1.146.781-1.927.782-.781 1.927-.781H15.5q1.146 0 1.927.781.781.781.781 1.927v10.062q0 1.146-.781 1.927-.781.782-1.927.782Zm3.334-9.605q.479 0 .812-.333.333-.333.333-.812 0-.479-.333-.813-.333-.333-.812-.333-.479 0-.813.333-.333.334-.333.813 0 .479.333.812.334.333.813.333Zm0 6.313q1.145 0 1.937-.802t.792-1.948q0-1.146-.802-1.937-.802-.792-1.927-.792-1.146 0-1.938.802-.791.802-.791 1.927 0 1.146.802 1.948t1.927.802Zm0-1.75q-.417 0-.698-.292-.281-.291-.281-.708t.291-.698q.292-.281.688-.281.416 0 .698.292.281.291.281.687 0 .417-.292.708-.292.292-.687.292Zm-7.459 9.187q-1.146 0-1.927-.781Q2 18.25 2 17.104V5.042q0-.542.406-.948.406-.406.948-.406.542 0 .948.406.406.406.406.948v12.062h7.5q.542 0 .948.406.406.407.406.948 0 .542-.406.948-.406.406-.948.406Z"/></svg>

<svg xmlns="http://www.w3.org/2000/svg" height="20" width="20"><path d="M8.833 15.667Q7.688 15.667 6.906 14.885Q6.125 14.104 6.125 12.958V2.896Q6.125 1.75 6.906 0.969Q7.688 0.188 8.833 0.188H15.5Q16.646 0.188 17.427 0.969Q18.208 1.75 18.208 2.896V12.958Q18.208 14.104 17.427 14.885Q16.646 15.667 15.5 15.667ZM12.167 6.062Q12.646 6.062 12.979 5.729Q13.312 5.396 13.312 4.917Q13.312 4.438 12.979 4.104Q12.646 3.771 12.167 3.771Q11.688 3.771 11.354 4.104Q11.021 4.438 11.021 4.917Q11.021 5.396 11.354 5.729Q11.688 6.062 12.167 6.062ZM12.167 12.375Q13.312 12.375 14.104 11.573Q14.896 10.771 14.896 9.625Q14.896 8.479 14.094 7.688Q13.292 6.896 12.167 6.896Q11.021 6.896 10.229 7.698Q9.438 8.5 9.438 9.625Q9.438 10.771 10.24 11.573Q11.042 12.375 12.167 12.375ZM12.167 10.625Q11.75 10.625 11.469 10.333Q11.188 10.042 11.188 9.625Q11.188 9.208 11.479 8.927Q11.771 8.646 12.167 8.646Q12.583 8.646 12.865 8.938Q13.146 9.229 13.146 9.625Q13.146 10.042 12.854 10.333Q12.562 10.625 12.167 10.625ZM4.708 19.812Q3.562 19.812 2.781 19.031Q2 18.25 2 17.104V5.042Q2 4.5 2.406 4.094Q2.812 3.688 3.354 3.688Q3.896 3.688 4.302 4.094Q4.708 4.5 4.708 5.042V17.104Q4.708 17.104 4.708 17.104Q4.708 17.104 4.708 17.104H12.208Q12.75 17.104 13.156 17.51Q13.562 17.917 13.562 18.458Q13.562 19 13.156 19.406Q12.75 19.812 12.208 19.812Z"/></svg>
